X:1
T: The Edinburgh Volunteers
C:
R:Strathspey
Q: 128
K:Bb
M:4/4
L:1/16
F2|Bcd2 c3B B3A G3F|C3F A3c f3c B3A|G3A B3c e3d c3B|A3f dcBA BG3 G3^f|
g3d b3g f3g f3e|d3b d3B c3a c3A|G3A B3d g3a b3g|f3d dcBA BG3 G3A|
B4 G3B D3G B,3G|A4 F3A C3F A,3F|B4 G3B D3G B,3G|D3^F A3c BG3 G3A|
BAB2 G3B D3G B,3G|AGA2 F3A C3F A,3F|BAB2 G3B D3G B,3G|D3^F A3c BG3 G3^f|
g4 d3g B3g d3=e|f4 c3f A3f c3^f|g4 d3g B3g d3g|f3d dcBA BG3 G3^f|
g^fg2 d3g B3g d3=e|f=ef2 c3f A3f c3^f|B3d g3b A3c f3a|D3d dcBA BG3 G3||
